X:275
T:O'Gallagher's Frolics
M:6/8
L:1/8
K:Em
D|EDE GFE|BAB dBA|~B3 BAB|GBG AFD|\
EDE GFE|BAB dBA|BAG FAF|GEE E2:|
|:d|e2f gfe|gga bge|ded fed|faf fed|\
e2f gfe|dfe dBA|BAG FAF|GEE E2:|
